X:240
T:Maids of Tulla, The
B:O'Neill's Dance Music of Ireland
Z:Nigel Gatherer
M:4/4
L:1/8
K:A
eA (3cBA EA (3cBA|eAce fedc|bB (3dcB fB (3dcB|defg agaF|
eA (3cBA EA (3cBA|eAcA fedc|defg afec|dfed cAAg|]
aA (3AAA EAcA|aA (3AAA fedc|bB (3BBB FBdB|bB (3BBB defg|
aA (3AAA EAcA|aAAg fedc|defg afec|dfed cAAa|]
<end>
<start>
